Misc/zstd.svg

<svg xmlns="http://www.w3.org/2000/svg" viewBox="0 0 1200 800" preserveAspectRatio="none" width="1200" height="800">
 <path d="M0,0H1200V800H0Z" style="fill: white;"></path>
 <g>
  <g transform="translate(120,80)">
   <path d="M0,0H960V640H0Z" style="fill: white; stroke: black; stroke-width: 1;"></path>
   <svg x="0" y="0" overflow="hidden" width="960" height="640" viewBox="0 0 960 640">
    <g>
     <path d="M0,640h610v-457v457h43v-610h1v610h306" style="stroke-linejoin: miter; stroke: #00009a; stroke-width: 1; fill: none;"></path>
    </g>
   </svg>
   <g>
    <g transform="translate(0,640)">
     <path d="M0,0h960M0,-24v24m18,-12v12m19,-12v12m18,-12v12m18,-12v12m19,-24v24m18,-12v12m18,-12v12m19,-12v12m18,-12v12m18,-24v24m19,-12v12m18,-12v12m18,-12v12m18,-12v12m19,-24v24m18,-12v12m18,-12v12m19,-12v12m18,-12v12m18,-24v24m19,-12v12m18,-12v12m18,-12v12m19,-12v12m18,-24v24m18,-12v12m19,-12v12m18,-12v12m18,-12v12m19,-24v24m18,-12v12m18,-12v12m19,-12v12m18,-12v12m18,-24v24m19,-12v12m18,-12v12m18,-12v12m18,-12v12m19,-24v24m18,-12v12m18,-12v12m19,-12v12m18,-12v12m18,-24v24m19,-12v12m18,-12v12m18,-12v12m19,-12v12m18,-24v24m18,-12v12m19,-12v12" style="stroke: black; stroke-width: 1;"></path>
     <g font-family="Arial" font-size="28" space="preserve">
      <text fill="black" text-anchor="middle" dy=".8em" transform="translate(0,6)">
       0
      </text>
      <text fill="black" text-anchor="middle" dy=".8em" transform="translate(92,6)">
       0.1
      </text>
      <text fill="black" text-anchor="middle" dy=".8em" transform="translate(183,6)">
       0.2
      </text>
      <text fill="black" text-anchor="middle" dy=".8em" transform="translate(275,6)">
       0.3
      </text>
      <text fill="black" text-anchor="middle" dy=".8em" transform="translate(366,6)">
       0.4
      </text>
      <text fill="black" text-anchor="middle" dy=".8em" transform="translate(458,6)">
       0.5
      </text>
      <text fill="black" text-anchor="middle" dy=".8em" transform="translate(550,6)">
       0.6
      </text>
      <text fill="black" text-anchor="middle" dy=".8em" transform="translate(641,6)">
       0.7
      </text>
      <text fill="black" text-anchor="middle" dy=".8em" transform="translate(733,6)">
       0.8
      </text>
      <text fill="black" text-anchor="middle" dy=".8em" transform="translate(824,6)">
       0.9
      </text>
      <text fill="black" text-anchor="middle" dy=".8em" transform="translate(916,6)">
       1
      </text>
      <g transform="translate(965,-10)">
       <text fill="black" font-size="28">
        ×10
       </text>
       <text fill="black" font-size="17" transform="translate(46,-14)">
        6
       </text>
      </g>
     </g>
     <g font-family="Arial" font-size="28" space="preserve" transform="translate(960,45)">
      <text fill="black" text-anchor="end" dy=".4em">
       bytes
      </text>
     </g>
    </g>
    <g>
     <path d="M0,0v640M36,640h-36m18,-15h-18m18,-15h-18m18,-16h-18m18,-15h-18m36,-15h-36m18,-15h-18m18,-16h-18m18,-15h-18m18,-15h-18m36,-15h-36m18,-16h-18m18,-15h-18m18,-15h-18m18,-15h-18m36,-16h-36m18,-15h-18m18,-15h-18m18,-15h-18m18,-16h-18m36,-15h-36m18,-15h-18m18,-15h-18m18,-15h-18m18,-16h-18m36,-15h-36m18,-15h-18m18,-15h-18m18,-16h-18m18,-15h-18m36,-15h-36m18,-15h-18m18,-16h-18m18,-15h-18m18,-15h-18m36,-15h-36m18,-16h-18m18,-15h-18m18,-15h-18m18,-15h-18m36,-16h-36m18,-15h-18m18,-15h-18" style="stroke: black; stroke-width: 1;"></path>
     <g font-family="Arial" font-size="28" space="preserve" fill="black" text-anchor="end">
      <text dy=".4em" transform="translate(-4,640)">
       0
      </text>
      <text dy=".4em" transform="translate(-4,564)">
       0.5
      </text>
      <text dy=".4em" transform="translate(-4,488)">
       1
      </text>
      <text dy=".4em" transform="translate(-4,411)">
       1.5
      </text>
      <text dy=".4em" transform="translate(-4,335)">
       2
      </text>
      <text dy=".4em" transform="translate(-4,259)">
       2.5
      </text>
      <text dy=".4em" transform="translate(-4,183)">
       3
      </text>
      <text dy=".4em" transform="translate(-4,107)">
       3.5
      </text>
      <text dy=".4em" transform="translate(-4,30)">
       4
      </text>
     </g>
    </g>
   </g>
  </g>
  <g transform="translate(120,4)" font-family="Arial" font-size="40" space="preserve">
   <text fill="black" text-anchor="middle" dy=".8em" transform="translate(480)">
    Payload size of blocks
   </text>
  </g>
  <g transform="translate(936,52)" font-family="Arial" font-size="25" space="preserve" fill="black">
   <path d="M0,0H240V128H0Z" style="fill: white; stroke: black; stroke-width: 1;"></path>
   <text text-anchor="middle" dy=".4em" transform="translate(120,16)">
    payloadSize
   </text>
   <text text-anchor="start" dy=".4em" transform="translate(12,48)">
    Entries
   </text>
   <text text-anchor="end" dy=".4em" transform="translate(228,48)">
    7
   </text>
   <text text-anchor="start" dy=".4em" transform="translate(12,80)">
    Mean
   </text>
   <text text-anchor="end" dy=".4em" transform="translate(228,80)">
    693134
   </text>
   <text text-anchor="start" dy=".4em" transform="translate(12,112)">
    Std Dev
   </text>
   <text text-anchor="end" dy=".4em" transform="translate(228,112)">
    23540
   </text>
   <path d="M0,32h240" style="stroke: black; stroke-width: 1;"></path>
  </g>
 </g>
</svg>

<svg xmlns="http://www.w3.org/2000/svg" viewBox="0 0 1200 800" preserveAspectRatio="none" width="1200" height="800">
 <path d="M0,0H1200V800H0Z" style="fill: white;"></path>
 <g>
  <g transform="translate(120,80)">
   <path d="M0,0H960V640H0Z" style="fill: white; stroke: black; stroke-width: 1;"></path>
   <svg x="0" y="0" overflow="hidden" width="960" height="640" viewBox="0 0 960 640">
    <g>
     <path d="M0,640h610v-457v457h43v-610h1v610h306" style="stroke-linejoin: miter; stroke: #00009a; stroke-width: 1; fill: none;"></path>
    </g>
   </svg>
   <g>
    <g transform="translate(0,640)">
     <path d="M0,0h960M0,-24V0M18,-12V0M37,-12V0M55,-12V0M73,-12V0M92,-24V0M110,-12V0M128,-12V0M147,-12V0M165,-12V0M183,-24V0M202,-12V0M220,-12V0M238,-12V0M256,-12V0M275,-24V0M293,-12V0M311,-12V0M330,-12V0M348,-12V0M366,-24V0M385,-12V0M403,-12V0M421,-12V0M440,-12V0M458,-24V0M476,-12V0M495,-12V0M513,-12V0M531,-12V0M550,-24V0M568,-12V0M586,-12V0M605,-12V0M623,-12V0M641,-24V0M660,-12V0M678,-12V0M696,-12V0M714,-12V0M733,-24V0M751,-12V0M769,-12V0M788,-12V0M806,-12V0M824,-24V0M843,-12V0M861,-12V0M879,-12V0M898,-12V0M916,-24V0M934,-12V0M953,-12V0" style="stroke: black; stroke-width: 1;"></path>
     <g font-family="Arial" font-size="28" space="preserve">
      <text fill="black" text-anchor="middle" dy=".8em" transform="translate(0,6)">
       0
      </text>
      <text fill="black" text-anchor="middle" dy=".8em" transform="translate(92,6)">
       0.1
      </text>
      <text fill="black" text-anchor="middle" dy=".8em" transform="translate(183,6)">
       0.2
      </text>
      <text fill="black" text-anchor="middle" dy=".8em" transform="translate(275,6)">
       0.3
      </text>
      <text fill="black" text-anchor="middle" dy=".8em" transform="translate(366,6)">
       0.4
      </text>
      <text fill="black" text-anchor="middle" dy=".8em" transform="translate(458,6)">
       0.5
      </text>
      <text fill="black" text-anchor="middle" dy=".8em" transform="translate(550,6)">
       0.6
      </text>
      <text fill="black" text-anchor="middle" dy=".8em" transform="translate(641,6)">
       0.7
      </text>
      <text fill="black" text-anchor="middle" dy=".8em" transform="translate(733,6)">
       0.8
      </text>
      <text fill="black" text-anchor="middle" dy=".8em" transform="translate(824,6)">
       0.9
      </text>
      <text fill="black" text-anchor="middle" dy=".8em" transform="translate(916,6)">
       1
      </text>
      <g transform="translate(965,-10)">
       <text fill="black" font-size="28">
        ×10
       </text>
       <text fill="black" font-size="17" transform="translate(46,-14)">
        6
       </text>
      </g>
     </g>
     <g font-family="Arial" font-size="28" space="preserve" transform="translate(960,45)">
      <text fill="black" text-anchor="end" dy=".4em">
       bytes
      </text>
     </g>
    </g>
    <g>
     <path d="M0,0v640M36,640H0M18,625H0M18,610H0M18,594H0M18,579H0M36,564H0M18,549H0M18,533H0M18,518H0M18,503H0M36,488H0M18,472H0M18,457H0M18,442H0M18,427H0M36,411H0M18,396H0M18,381H0M18,366H0M18,350H0M36,335H0M18,320H0M18,305H0M18,290H0M18,274H0M36,259H0M18,244H0M18,229H0M18,213H0M18,198H0M36,183H0M18,168H0M18,152H0M18,137H0M18,122H0M36,107H0M18,91H0M18,76H0M18,61H0M18,46H0M36,30H0M18,15H0M18,0H0" style="stroke: black; stroke-width: 1;"></path>
     <g font-family="Arial" font-size="28" space="preserve" fill="black" text-anchor="end">
      <text dy=".4em" transform="translate(-4,640)">
       0
      </text>
      <text dy=".4em" transform="translate(-4,564)">
       0.5
      </text>
      <text dy=".4em" transform="translate(-4,488)">
       1
      </text>
      <text dy=".4em" transform="translate(-4,411)">
       1.5
      </text>
      <text dy=".4em" transform="translate(-4,335)">
       2
      </text>
      <text dy=".4em" transform="translate(-4,259)">
       2.5
      </text>
      <text dy=".4em" transform="translate(-4,183)">
       3
      </text>
      <text dy=".4em" transform="translate(-4,107)">
       3.5
      </text>
      <text dy=".4em" transform="translate(-4,30)">
       4
      </text>
     </g>
    </g>
   </g>
  </g>
  <g transform="translate(120,4)" font-family="Arial" font-size="40" space="preserve">
   <text fill="black" text-anchor="middle" dy=".8em" transform="translate(480)">
    Payload size of blocks
   </text>
  </g>
  <g transform="translate(936,52)" font-family="Arial" font-size="25" space="preserve" fill="black">
   <path d="M0,0H240V128H0Z" style="fill: white; stroke: black; stroke-width: 1;"></path>
   <text text-anchor="middle" dy=".4em" transform="translate(120,16)">
    payloadSize
   </text>
   <text text-anchor="start" dy=".4em" transform="translate(12,48)">
    Entries
   </text>
   <text text-anchor="end" dy=".4em" transform="translate(228,48)">
    7
   </text>
   <text text-anchor="start" dy=".4em" transform="translate(12,80)">
    Mean
   </text>
   <text text-anchor="end" dy=".4em" transform="translate(228,80)">
    693134
   </text>
   <text text-anchor="start" dy=".4em" transform="translate(12,112)">
    Std Dev
   </text>
   <text text-anchor="end" dy=".4em" transform="translate(228,112)">
    23540
   </text>
   <path d="M0,32h240" style="stroke: black; stroke-width: 1;"></path>
  </g>
 </g>
</svg>
